groups/sulfur/sulfonamide.svg

<?xml version='1.0' encoding='iso-8859-1'?>
<svg version='1.1' baseProfile='full'
              xmlns='http://www.w3.org/2000/svg'
                      xmlns:rdkit='http://www.rdkit.org/xml'
                      xmlns:xlink='http://www.w3.org/1999/xlink'
                  xml:space='preserve'
width='256px' height='256px' viewBox='0 0 256 256'>
<!-- END OF HEADER -->
<rect style='opacity:1.0;fill:#FFFFFF;stroke:none' width='256.0' height='256.0' x='0.0' y='0.0'> </rect>
<path class='bond-0 atom-0 atom-1' d='M 127.8,19.2 L 127.8,94.8' style='fill:none;fill-rule:evenodd;stroke:#000000;stroke-width:2.0px;stroke-linecap:butt;stroke-linejoin:miter;stroke-opacity:1' />
<path class='bond-1 atom-1 atom-2' d='M 112.8,103.0 L 52.2,103.0' style='fill:none;fill-rule:evenodd;stroke:#000000;stroke-width:2.0px;stroke-linecap:butt;stroke-linejoin:miter;stroke-opacity:1' />
<path class='bond-1 atom-1 atom-2' d='M 112.8,116.6 L 52.2,116.6' style='fill:none;fill-rule:evenodd;stroke:#000000;stroke-width:2.0px;stroke-linecap:butt;stroke-linejoin:miter;stroke-opacity:1' />
<path class='bond-2 atom-1 atom-3' d='M 142.8,116.6 L 203.4,116.6' style='fill:none;fill-rule:evenodd;stroke:#000000;stroke-width:2.0px;stroke-linecap:butt;stroke-linejoin:miter;stroke-opacity:1' />
<path class='bond-2 atom-1 atom-3' d='M 142.8,103.0 L 203.4,103.0' style='fill:none;fill-rule:evenodd;stroke:#000000;stroke-width:2.0px;stroke-linecap:butt;stroke-linejoin:miter;stroke-opacity:1' />
<path class='bond-3 atom-1 atom-4' d='M 127.8,132.8 L 127.8,185.4' style='fill:none;fill-rule:evenodd;stroke:#000000;stroke-width:2.0px;stroke-linecap:butt;stroke-linejoin:miter;stroke-opacity:1' />
<path class='atom-1' d='M82.5244,19.2488 C82.5244,22.6445 87.052,22.6445 87.052,19.2488 C87.052,15.8531 91.5795,15.8531 91.5795,19.2488 C91.5795,22.6445 96.1071,22.6445 96.1071,19.2488 C96.1071,15.8531 100.635,15.8531 100.635,19.2488 C100.635,22.6445 105.162,22.6445 105.162,19.2488 C105.162,15.8531 109.69,15.8531 109.69,19.2488 C109.69,22.6445 114.217,22.6445 114.217,19.2488 C114.217,15.8531 118.745,15.8531 118.745,19.2488 C118.745,22.6445 123.272,22.6445 123.272,19.2488 C123.272,15.8531 127.8,15.8531 127.8,19.2488 C127.8,22.6445 132.328,22.6445 132.328,19.2488 C132.328,15.8531 136.855,15.8531 136.855,19.2488 C136.855,22.6445 141.383,22.6445 141.383,19.2488 C141.383,15.8531 145.91,15.8531 145.91,19.2488 C145.91,22.6445 150.438,22.6445 150.438,19.2488 C150.438,15.8531 154.965,15.8531 154.965,19.2488 C154.965,22.6445 159.493,22.6445 159.493,19.2488 C159.493,15.8531 164.02,15.8531 164.02,19.2488 C164.02,22.6445 168.548,22.6445 168.548,19.2488 C168.548,15.8531 173.076,15.8531 173.076,19.2488' style='fill:none;stroke:#7F7F7F;stroke-width:2.0px;stroke-linecap:butt;stroke-linejoin:miter;stroke-opacity:1' />
<text x='115.8' y='129.8' class='atom-1' style='font-size:40px;font-style:normal;font-weight:normal;fill-opacity:1;stroke:none;font-family:sans-serif;text-anchor:start;fill:#000000' >S</text>
<text x='25.2' y='129.8' class='atom-2' style='font-size:40px;font-style:normal;font-weight:normal;fill-opacity:1;stroke:none;font-family:sans-serif;text-anchor:start;fill:#000000' >O</text>
<text x='206.4' y='129.8' class='atom-3' style='font-size:40px;font-style:normal;font-weight:normal;fill-opacity:1;stroke:none;font-family:sans-serif;text-anchor:start;fill:#000000' >O</text>
<text x='115.8' y='220.4' class='atom-4' style='font-size:40px;font-style:normal;font-weight:normal;fill-opacity:1;stroke:none;font-family:sans-serif;text-anchor:start;fill:#000000' >N</text>
<text x='143.4' y='220.4' class='atom-4' style='font-size:40px;font-style:normal;font-weight:normal;fill-opacity:1;stroke:none;font-family:sans-serif;text-anchor:start;fill:#000000' >H</text>
<text x='171.0' y='236.4' class='atom-4' style='font-size:26px;font-style:normal;font-weight:normal;fill-opacity:1;stroke:none;font-family:sans-serif;text-anchor:start;fill:#000000' >2</text>
</svg>

<svg height="256" viewBox="0 0 256 256" width="256" xmlns="http://www.w3.org/2000/svg"><path d="m0 0h256v256h-256z" fill="#fff"/><g fill="none" stroke-width="2"><path d="m127.8 19.2v75.6" stroke="#000"/><path d="m112.8 103h-60.6" stroke="#000"/><path d="m112.8 116.6h-60.6" stroke="#000"/><path d="m142.8 116.6h60.6" stroke="#000"/><path d="m142.8 103h60.6" stroke="#000"/><path d="m127.8 132.8v52.6" stroke="#000"/><path d="m82.524 19.249c0 3.396 4.528 3.396 4.528 0s4.528-3.396 4.528 0 4.527 3.396 4.527 0 4.528-3.396 4.528 0 4.527 3.396 4.527 0 4.528-3.396 4.528 0 4.527 3.396 4.527 0 4.528-3.396 4.528 0 4.527 3.396 4.527 0 4.528-3.396 4.528 0 4.528 3.396 4.528 0 4.527-3.396 4.527 0 4.528 3.396 4.528 0 4.527-3.396 4.527 0 4.528 3.396 4.528 0 4.527-3.396 4.527 0 4.528 3.396 4.528 0 4.527-3.396 4.527 0 4.528 3.396 4.528 0 4.528-3.396 4.528 0" stroke="#7f7f7f"/></g><text font-family="sans-serif" font-size="40" x="115.8" y="129.8">S</text><text font-family="sans-serif" font-size="40" x="25.2" y="129.8">O</text><text font-family="sans-serif" font-size="40" x="206.4" y="129.8">O</text><text font-family="sans-serif" font-size="40" x="115.8" y="220.4">N</text><text font-family="sans-serif" font-size="40" x="143.4" y="220.4">H</text><text font-family="sans-serif" font-size="26" x="171" y="236.4">2</text></svg>
